apps/scalable/share/share.svg

<svg xmlns="http://www.w3.org/2000/svg" style="isolation:isolate" width="256" height="256"><defs><filter id="a" width="270.648" height="254.338" x="-7.32" y="2.95" filterUnits="userSpaceOnUse"><feGaussianBlur xmlns="http://www.w3.org/2000/svg" in="SourceGraphic" stdDeviation="4.294"/><feOffset xmlns="http://www.w3.org/2000/svg" dy="4" result="pf_100_offsetBlur"/><feFlood xmlns="http://www.w3.org/2000/svg" flood-opacity=".4"/><feComposite xmlns="http://www.w3.org/2000/svg" in2="pf_100_offsetBlur" operator="in" result="pf_100_dropShadow"/><feBlend xmlns="http://www.w3.org/2000/svg" in="SourceGraphic" in2="pf_100_dropShadow"/></filter></defs><g filter="url(#a)"><linearGradient id="b" x1=".5" x2=".5" y1=".999" y2="-.001" gradientTransform="matrix(244.648 0 0 228.338 5.676 11.947)" gradientUnits="userSpaceOnUse"><stop offset="0%" stop-color="#ad4f8d"/><stop offset="100%" stop-color="#6b8ccb"/></linearGradient><path fill="url(#b)" d="M165.685 11.947c74.055 0 84.639 10.557 84.639 84.544v59.251c0 73.986-10.584 84.543-84.639 84.543h-75.37c-74.055 0-84.639-10.557-84.639-84.543V96.491c0-73.987 10.584-84.544 84.639-84.544h75.37z"/></g><path fill="none" d="M166.444 11.95c74.406 0 85.04 10.557 85.04 84.544v59.251c0 73.986-10.634 84.543-85.04 84.543H90.719c-74.405 0-85.039-10.557-85.039-84.543V96.494c0-73.987 10.634-84.544 85.039-84.544h75.725z"/><path fill="#F7F7F7" fill-opacity=".5" d="M64.121 239.56c.55.036 1.021.098 1.581.131.435.025 1.027.011 1.468.035l-.039-7.592 26.629-24.465v-8.156l12.29-12.233v-6.115l6.144-6.117v-16.309l-8.193-8.156H87.614l-8.193-8.154H58.938l-8.195 8.154v20.389l16.443 14.34-.055 18.279-6.144 6.117v26.502l3.134 3.35zM99.904 81.267l-6.144 6.117h6.144l2.049 2.039h2.048l2.049-2.039-6.146-6.117zM177.742 109.809h-24.58l-14.338 14.271v20.388l10.241 10.194h14.339l6.145 6.116v6.116l4.097 4.077v24.465l15.556 16.365 25.688-25.567-.277-23.418 20.484-20.387h-8.194l-20.483-20.387v-8.155h-24.581l-4.097-4.078z"/><path fill="#F7F7F7" fill-opacity=".5" d="M251.484 117.964V96.493c0-9.248-.167-17.505-.603-24.875a197.93 197.93 0 0 0-.869-10.4c-.366-3.254-.812-6.298-1.352-9.147-.54-2.848-1.174-5.501-1.914-7.97-.739-2.469-1.585-4.756-2.551-6.871-.614-1.347-1.365-2.511-2.08-3.723l-2.922 2.908h-12.29l-12.29 12.233-8.193-8.155h-24.58l-12.29 12.233v10.193h12.29v-6.117h8.193v8.156l-4.098 4.076-16.385.276-6.146 5.841h-8.193v8.155l-6.146 6.117v12.23h12.29l8.195-8.154h8.193v4.078l8.192 8.155h4.098v-4.079l-8.193-8.154h8.193l8.192 8.154h10.242l-6.144-6.115 6.144-6.115h6.146l6.144 6.115h-6.144l-6.146 6.115 6.034 6.006.112 6.227h-8.193l24.581 24.465h4.095l4.097-4.076 8.193-8.157-8.193-8.154h12.291z"/><path fill="#F7F7F7" fill-opacity=".5" d="M157.259 71.073v-6.116l6.145-6.116v12.232h-6.145zM220.758 191.359v-12.784l8.194-7.604v20.388h-8.194zM136.775 11.95H90.718c-.789 0-1.348.049-2.123.051l-7.125 8.104 12.29 12.232V45.12l14.339 15.76h8.193v-8.154l12.29-12.233v-8.156l8.193-8.154V11.95zM126.533 56.802h6.146l6.145 6.116h-12.291v-6.116zM71.228 124.08h-6.145l-6.146 6.117h12.291v-6.117z"/><path fill="#F7F7F7" fill-opacity=".5" d="M16.585 30.96c-.107.152-.245.268-.35.422a39.514 39.514 0 0 0-3.267 5.848c-.965 2.115-1.811 4.402-2.551 6.871-.74 2.469-1.373 5.122-1.913 7.97-.54 2.849-.986 5.893-1.352 9.147a197.89 197.89 0 0 0-.87 10.4c-.436 7.37-.602 15.627-.602 24.875v21.471l8.193 8.154h12.29l20.485 20.389v-24.465l12.29-12.232h8.193l12.29-12.233h12.29l-6.144-6.117 12.29-14.269-12.29-12.233H67.131v16.309h-8.193l-8.195-8.155v-8.154l12.291-12.232h10.243v-8.157l-12.29-12.232H40.502v12.232H30.26L16.585 30.96zM67.131 12.515c-.429.023-1.005.008-1.429.033-3.705.217-7.189.5-10.461.863-3.272.364-6.334.808-9.199 1.344a80.758 80.758 0 0 0-7.159 1.699l7.765 7.729h20.483V12.515z"/><g><circle fill="#FFF" r="1" transform="translate(72.959 103.694) scale(4.078)" vector-effect="non-scaling-stroke"/><circle fill="#FFF" r="1" transform="translate(93.346 185.244) scale(4.078)" vector-effect="non-scaling-stroke"/><circle fill="#FFF" r="1" transform="translate(154.509 144.469) scale(4.078)" vector-effect="non-scaling-stroke"/><circle fill="#FFF" r="1" transform="translate(174.896 83.306) scale(4.078)" vector-effect="non-scaling-stroke"/><path fill="none" stroke="#FFF" stroke-width="2" d="M5.68 138.353c68.415-49.089 150.868-57.085 244.65-59.124M7.252 59.908c20.973 15.048 41.693 29.384 65.226 43.833 53.234 32.684 112.819 59.511 177.852 60.924M155.018 141.411c20.097-43.077 32.367-78.596 27.252-129.117M140.057 239.946C70.119 187.607 64.499 114.679 76.551 12.294" vector-effect="non-scaling-stroke" opacity=".5"/><defs><filter id="c" width="20.732" height="20.732" x="62.59" y="93.33" filterUnits="userSpaceOnUse"><feGaussianBlur xmlns="http://www.w3.org/2000/svg" stdDeviation="2.7"/></filter></defs><circle fill="#FFF" r="1" transform="translate(72.959 103.694) scale(4.078)" vector-effect="non-scaling-stroke" filter="url(#c)"/><defs><filter id="d" width="20.732" height="20.732" x="82.98" y="174.88" filterUnits="userSpaceOnUse"><feGaussianBlur xmlns="http://www.w3.org/2000/svg" stdDeviation="2.7"/></filter></defs><circle fill="#FFF" r="1" transform="translate(93.346 185.244) scale(4.078)" vector-effect="non-scaling-stroke" filter="url(#d)"/><defs><filter id="e" width="20.732" height="20.732" x="144.14" y="134.1" filterUnits="userSpaceOnUse"><feGaussianBlur xmlns="http://www.w3.org/2000/svg" stdDeviation="2.7"/></filter></defs><circle fill="#FFF" r="1" transform="translate(154.509 144.469) scale(4.078)" vector-effect="non-scaling-stroke" filter="url(#e)"/><defs><filter id="f" width="20.732" height="20.732" x="164.53" y="72.94" filterUnits="userSpaceOnUse"><feGaussianBlur xmlns="http://www.w3.org/2000/svg" stdDeviation="2.7"/></filter></defs><circle fill="#FFF" r="1" transform="translate(174.896 83.306) scale(4.078)" vector-effect="non-scaling-stroke" filter="url(#f)"/><path fill="none" stroke="#FFF" stroke-width="2" d="M153.937 144.278c-44.396 55.549-135.478 57.02-146.659 50.023" vector-effect="non-scaling-stroke" opacity=".5"/></g><g opacity=".05"><path fill="#FFF" d="M8.476 55.74C6.729 66.667 6.158 80.255 6.158 97.205v59.251c0 73.986 10.584 84.544 84.64 84.544h75.369c55.135 0 75.078-5.874 81.675-39.397L8.476 55.74z"/></g><defs><filter id="g" width="161.333" height="171" x="33.33" y="44.5" filterUnits="userSpaceOnUse"><feGaussianBlur xmlns="http://www.w3.org/2000/svg" in="SourceGraphic" stdDeviation="4.294"/><feOffset xmlns="http://www.w3.org/2000/svg" dy="4" result="pf_100_offsetBlur"/><feFlood xmlns="http://www.w3.org/2000/svg" flood-opacity=".4"/><feComposite xmlns="http://www.w3.org/2000/svg" in2="pf_100_offsetBlur" operator="in" result="pf_100_dropShadow"/><feBlend xmlns="http://www.w3.org/2000/svg" in="SourceGraphic" in2="pf_100_dropShadow"/></filter></defs><g filter="url(#g)"><path fill="#FFF" d="M181.667 77.667c0-13.292-10.875-24.167-24.167-24.167-13.329.042-24.124 10.837-24.167 24.167 0 13.291 10.875 24.166 24.167 24.166 13.292 0 24.167-10.875 24.167-24.166zm0 96.666c0-13.291-10.875-24.166-24.167-24.166-13.329.042-24.124 10.837-24.167 24.166 0 13.292 10.875 24.167 24.167 24.167 13.292 0 24.167-10.875 24.167-24.167zM172 77.667c0 8.062-6.438 14.5-14.5 14.5-8.062 0-14.5-6.438-14.5-14.5 0-8.062 6.438-14.5 14.5-14.5 8.062 0 14.5 6.438 14.5 14.5zm0 96.666c0 8.062-6.438 14.5-14.5 14.5-8.062 0-14.5-6.438-14.5-14.5 0-8.062 6.438-14.5 14.5-14.5 8.062 0 14.5 6.438 14.5 14.5zm-41.238-76.27a33.727 33.727 0 0 1-4.775-8.429L88.741 110.35a24.041 24.041 0 0 0-18.241-8.517c-13.329.043-24.124 10.838-24.167 24.167 0 13.292 10.875 24.167 24.167 24.167 7.298 0 13.794-3.355 18.241-8.507l37.246 20.706c1.179-3.055 2.803-5.858 4.775-8.42l-37.313-20.735c.715-2.291 1.218-4.688 1.218-7.211 0-2.523-.503-4.92-1.228-7.211l37.323-20.726zM85 126c0 8.062-6.438 14.5-14.5 14.5-8.062 0-14.5-6.438-14.5-14.5 0-8.062 6.438-14.5 14.5-14.5 8.062 0 14.5 6.438 14.5 14.5z"/></g><g opacity=".4"><linearGradient id="h" x1=".517" x2=".517" y2="1"><stop offset="0%" stop-color="#fff"/><stop offset="12.5%" stop-opacity=".098" stop-color="#fff"/><stop offset="92.5%" stop-opacity=".098"/><stop offset="100%" stop-opacity=".498"/></linearGradient><path fill="none" stroke="url(#h)" stroke-linecap="round" stroke-linejoin="round" stroke-width="4.077" d="M165.685 11.947c74.055 0 84.639 10.557 84.639 84.544v59.251c0 73.986-10.584 84.543-84.639 84.543h-75.37c-74.055 0-84.639-10.557-84.639-84.543V96.491c0-73.987 10.584-84.544 84.639-84.544h75.37z" vector-effect="non-scaling-stroke"/></g></svg>

<svg xmlns="http://www.w3.org/2000/svg" style="isolation:isolate" width="256" height="256" viewBox="0 0 256 256">
 <defs>
  <filter id="lxPVu2Bd4ZurirbsUvfuXbD5ufjn77mo" width="270.648" height="254.338" x="-7.32" y="2.95" filterUnits="userSpaceOnUse">
   <feGaussianBlur xmlns="http://www.w3.org/2000/svg" in="SourceGraphic" stdDeviation="4.294"/>
   <feOffset xmlns="http://www.w3.org/2000/svg" dx="0" dy="4" result="pf_100_offsetBlur"/>
   <feFlood xmlns="http://www.w3.org/2000/svg" flood-opacity=".4"/>
   <feComposite xmlns="http://www.w3.org/2000/svg" in2="pf_100_offsetBlur" operator="in" result="pf_100_dropShadow"/>
   <feBlend xmlns="http://www.w3.org/2000/svg" in="SourceGraphic" in2="pf_100_dropShadow" mode="normal"/>
  </filter>
 </defs>
 <g filter="url(#lxPVu2Bd4ZurirbsUvfuXbD5ufjn77mo)">
  <linearGradient id="_lgradient_236" x1=".5" x2=".5" y1=".999" y2="-.001" gradientTransform="matrix(244.648,0,0,228.338,5.676,11.947)" gradientUnits="userSpaceOnUse">
   <stop offset="0%" style="stop-color:rgb(173,79,141)"/>
   <stop offset="100%" style="stop-color:rgb(107,140,203)"/>
  </linearGradient>
  <path fill="url(#_lgradient_236)" d="M 165.685 11.947 C 239.74 11.947 250.324 22.504 250.324 96.491 L 250.324 155.742 C 250.324 229.728 239.74 240.285 165.685 240.285 L 90.315 240.285 C 16.26 240.285 5.676 229.728 5.676 155.742 L 5.676 96.491 C 5.676 22.504 16.26 11.947 90.315 11.947 L 165.685 11.947 Z"/>
 </g>
 <g>
  <g>
   <path fill="none" d="M 166.444 11.95 C 240.85 11.95 251.484 22.507 251.484 96.494 L 251.484 155.745 C 251.484 229.731 240.85 240.288 166.444 240.288 L 90.719 240.288 C 16.314 240.288 5.68 229.731 5.68 155.745 L 5.68 96.494 C 5.68 22.507 16.314 11.95 90.719 11.95 L 166.444 11.95 Z"/>
   <path fill="#F7F7F7" fill-opacity=".5" d="M 64.121 239.56 C 64.671 239.596 65.142 239.658 65.702 239.691 C 66.137 239.716 66.729 239.702 67.17 239.726 L 67.131 232.134 L 93.76 207.669 L 93.76 199.513 L 106.05 187.28 L 106.05 181.165 L 112.194 175.048 L 112.194 158.739 L 104.001 150.583 L 87.614 150.583 L 79.421 142.429 L 58.938 142.429 L 50.743 150.583 L 50.743 170.972 L 67.186 185.312 L 67.131 203.591 L 60.987 209.708 L 60.987 236.21 L 64.121 239.56 Z"/>
   <path fill="#F7F7F7" fill-opacity=".5" d="M 99.904 81.267 L 93.76 87.384 L 99.904 87.384 L 101.953 89.423 L 104.001 89.423 L 106.05 87.384 L 99.904 81.267 Z"/>
   <path fill="#F7F7F7" fill-opacity=".5" d="M 177.742 109.809 L 153.162 109.809 L 138.824 124.08 L 138.824 144.468 L 149.065 154.662 L 163.404 154.662 L 169.549 160.778 L 169.549 166.894 L 173.646 170.971 L 173.646 195.436 L 189.202 211.801 L 214.89 186.234 L 214.613 162.816 L 235.097 142.429 L 226.903 142.429 L 206.42 122.042 L 206.42 113.887 L 181.839 113.887 L 177.742 109.809 Z"/>
   <path fill="#F7F7F7" fill-opacity=".5" d="M 251.484 117.964 L 251.484 96.493 C 251.484 87.245 251.317 78.988 250.881 71.618 C 250.663 67.934 250.378 64.472 250.012 61.218 C 249.646 57.964 249.2 54.92 248.66 52.071 C 248.12 49.223 247.486 46.57 246.746 44.101 C 246.007 41.632 245.161 39.345 244.195 37.23 C 243.581 35.883 242.83 34.719 242.115 33.507 L 239.193 36.415 L 226.903 36.415 L 214.613 48.648 L 206.42 40.493 L 181.84 40.493 L 169.55 52.726 L 169.55 62.919 L 181.84 62.919 L 181.84 56.802 L 190.033 56.802 L 190.033 64.958 L 185.935 69.034 L 169.55 69.31 L 163.404 75.151 L 155.211 75.151 L 155.211 83.306 L 149.065 89.423 L 149.065 101.653 L 161.355 101.653 L 169.55 93.499 L 177.743 93.499 L 177.743 97.577 L 185.935 105.732 L 190.033 105.732 L 190.033 101.653 L 181.84 93.499 L 190.033 93.499 L 198.225 101.653 L 208.467 101.653 L 202.323 95.538 L 208.467 89.423 L 214.613 89.423 L 220.757 95.538 L 214.613 95.538 L 208.467 101.653 L 214.501 107.659 L 214.613 113.886 L 206.42 113.886 L 231.001 138.351 L 235.096 138.351 L 239.193 134.275 L 247.386 126.118 L 239.193 117.964 L 251.484 117.964 Z"/>
   <path fill="#F7F7F7" fill-opacity=".5" d="M 157.259 71.073 L 157.259 64.957 L 163.404 58.841 L 163.404 71.073 L 157.259 71.073 Z"/>
   <path fill="#F7F7F7" fill-opacity=".5" d="M 220.758 191.359 L 220.758 178.575 L 228.952 170.971 L 228.952 191.359 L 220.758 191.359 Z"/>
   <path fill="#F7F7F7" fill-opacity=".5" d="M 136.775 11.95 L 90.718 11.95 C 89.929 11.95 89.37 11.999 88.595 12.001 L 81.47 20.105 L 93.76 32.337 L 93.76 45.12 L 108.099 60.88 L 116.292 60.88 L 116.292 52.726 L 128.582 40.493 L 128.582 32.337 L 136.775 24.183 L 136.775 11.95 Z"/>
   <path fill="#F7F7F7" fill-opacity=".5" d="M 126.533 56.802 L 132.679 56.802 L 138.824 62.918 L 126.533 62.918 L 126.533 56.802 Z"/>
   <path fill="#F7F7F7" fill-opacity=".5" d="M 71.228 124.08 L 65.083 124.08 L 58.937 130.197 L 71.228 130.197 L 71.228 124.08 Z"/>
   <path fill="#F7F7F7" fill-opacity=".5" d="M 16.585 30.96 C 16.478 31.112 16.34 31.228 16.235 31.382 C 15.018 33.17 13.934 35.114 12.968 37.23 C 12.003 39.345 11.157 41.632 10.417 44.101 C 9.677 46.57 9.044 49.223 8.504 52.071 C 7.964 54.92 7.518 57.964 7.152 61.218 C 6.786 64.472 6.5 67.934 6.282 71.618 C 5.846 78.988 5.68 87.245 5.68 96.493 L 5.68 117.964 L 13.873 126.118 L 26.163 126.118 L 46.648 146.507 L 46.648 122.042 L 58.938 109.81 L 67.131 109.81 L 79.421 97.577 L 91.711 97.577 L 85.567 91.46 L 97.857 77.191 L 85.567 64.958 L 67.131 64.958 L 67.131 81.267 L 58.938 81.267 L 50.743 73.112 L 50.743 64.958 L 63.034 52.726 L 73.277 52.726 L 73.277 44.569 L 60.987 32.337 L 40.502 32.337 L 40.502 44.569 L 30.26 44.569 L 16.585 30.96 Z"/>
   <path fill="#F7F7F7" fill-opacity=".5" d="M 67.131 12.515 C 66.702 12.538 66.126 12.523 65.702 12.548 C 61.997 12.765 58.513 13.048 55.241 13.411 C 51.969 13.775 48.907 14.219 46.042 14.755 C 43.483 15.234 41.136 15.818 38.883 16.454 L 46.648 24.183 L 67.131 24.183 L 67.131 12.515 Z"/>
  </g>
 </g>
 <g>
  <circle fill="#FFFFFF" cx="0" cy="0" r="1" transform="matrix(4.078,0,0,4.078,72.959,103.694)" vector-effect="non-scaling-stroke"/>
  <circle fill="#FFFFFF" cx="0" cy="0" r="1" transform="matrix(4.078,0,0,4.078,93.346,185.244)" vector-effect="non-scaling-stroke"/>
  <circle fill="#FFFFFF" cx="0" cy="0" r="1" transform="matrix(4.078,0,0,4.078,154.509,144.469)" vector-effect="non-scaling-stroke"/>
  <circle fill="#FFFFFF" cx="0" cy="0" r="1" transform="matrix(4.078,0,0,4.078,174.896,83.306)" vector-effect="non-scaling-stroke"/>
  <g opacity=".5">
   <path fill="none" fill-rule="evenodd" stroke="#FFFFFF" stroke-width="2" d="M 5.68 138.353 C 74.095 89.264 156.548 81.268 250.33 79.229" vector-effect="non-scaling-stroke"/>
  </g>
  <g opacity=".5">
   <path fill="none" fill-rule="evenodd" stroke="#FFFFFF" stroke-width="2" d="M 7.252 59.908 C 28.225 74.956 48.945 89.292 72.478 103.741 C 125.712 136.425 185.297 163.252 250.33 164.665" vector-effect="non-scaling-stroke"/>
  </g>
  <g opacity=".5">
   <path fill="none" fill-rule="evenodd" stroke="#FFFFFF" stroke-width="2" d="M 155.018 141.411 C 175.115 98.334 187.385 62.815 182.27 12.294" vector-effect="non-scaling-stroke"/>
  </g>
  <g opacity=".5">
   <path fill="none" fill-rule="evenodd" stroke="#FFFFFF" stroke-width="2" d="M 140.057 239.946 C 70.119 187.607 64.499 114.679 76.551 12.294" vector-effect="non-scaling-stroke"/>
  </g>
  <defs>
   <filter id="3VjNIHzxDto91ZEHNjlLyf36DD8F4hRy" width="20.732" height="20.732" x="62.59" y="93.33" filterUnits="userSpaceOnUse">
    <feGaussianBlur xmlns="http://www.w3.org/2000/svg" stdDeviation="2.7"/>
   </filter>
  </defs>
  <g filter="url(#3VjNIHzxDto91ZEHNjlLyf36DD8F4hRy)">
   <circle fill="#FFFFFF" cx="0" cy="0" r="1" transform="matrix(4.078,0,0,4.078,72.959,103.694)" vector-effect="non-scaling-stroke"/>
  </g>
  <defs>
   <filter id="kenJVV7WOpUHX6T11xyU7poNcqtAzaC9" width="20.732" height="20.732" x="82.98" y="174.88" filterUnits="userSpaceOnUse">
    <feGaussianBlur xmlns="http://www.w3.org/2000/svg" stdDeviation="2.7"/>
   </filter>
  </defs>
  <g filter="url(#kenJVV7WOpUHX6T11xyU7poNcqtAzaC9)">
   <circle fill="#FFFFFF" cx="0" cy="0" r="1" transform="matrix(4.078,0,0,4.078,93.346,185.244)" vector-effect="non-scaling-stroke"/>
  </g>
  <defs>
   <filter id="i2tRPdK8iuz9LhYhYxZkGEkdOSsydfpW" width="20.732" height="20.732" x="144.14" y="134.1" filterUnits="userSpaceOnUse">
    <feGaussianBlur xmlns="http://www.w3.org/2000/svg" stdDeviation="2.7"/>
   </filter>
  </defs>
  <g filter="url(#i2tRPdK8iuz9LhYhYxZkGEkdOSsydfpW)">
   <circle fill="#FFFFFF" cx="0" cy="0" r="1" transform="matrix(4.078,0,0,4.078,154.509,144.469)" vector-effect="non-scaling-stroke"/>
  </g>
  <defs>
   <filter id="OLEKEjDnxjgQubusMX7Bhhao2mvanF4k" width="20.732" height="20.732" x="164.53" y="72.94" filterUnits="userSpaceOnUse">
    <feGaussianBlur xmlns="http://www.w3.org/2000/svg" stdDeviation="2.7"/>
   </filter>
  </defs>
  <g filter="url(#OLEKEjDnxjgQubusMX7Bhhao2mvanF4k)">
   <circle fill="#FFFFFF" cx="0" cy="0" r="1" transform="matrix(4.078,0,0,4.078,174.896,83.306)" vector-effect="non-scaling-stroke"/>
  </g>
  <g opacity=".5">
   <path fill="none" fill-rule="evenodd" stroke="#FFFFFF" stroke-width="2" d="M 153.937 144.278 C 109.541 199.827 18.459 201.298 7.278 194.301" vector-effect="non-scaling-stroke"/>
  </g>
 </g>
 <g opacity=".05">
  <path fill="#FFFFFF" d="M 8.476 55.74 C 6.729 66.667 6.158 80.255 6.158 97.205 L 6.158 156.456 C 6.158 230.442 16.742 241 90.798 241 L 166.167 241 C 221.302 241 241.245 235.126 247.842 201.603 L 8.476 55.74 Z"/>
 </g>
 <defs>
  <filter id="sOo7xiKajwt278FWwuM83mOTuYAovt4b" width="161.333" height="171" x="33.33" y="44.5" filterUnits="userSpaceOnUse">
   <feGaussianBlur xmlns="http://www.w3.org/2000/svg" in="SourceGraphic" stdDeviation="4.294"/>
   <feOffset xmlns="http://www.w3.org/2000/svg" dx="0" dy="4" result="pf_100_offsetBlur"/>
   <feFlood xmlns="http://www.w3.org/2000/svg" flood-opacity=".4"/>
   <feComposite xmlns="http://www.w3.org/2000/svg" in2="pf_100_offsetBlur" operator="in" result="pf_100_dropShadow"/>
   <feBlend xmlns="http://www.w3.org/2000/svg" in="SourceGraphic" in2="pf_100_dropShadow" mode="normal"/>
  </filter>
 </defs>
 <g filter="url(#sOo7xiKajwt278FWwuM83mOTuYAovt4b)">
  <path fill="#FFFFFF" d="M 181.667 77.667 C 181.667 64.375 170.792 53.5 157.5 53.5 C 144.171 53.542 133.376 64.337 133.333 77.667 C 133.333 90.958 144.208 101.833 157.5 101.833 C 170.792 101.833 181.667 90.958 181.667 77.667 Z M 181.667 174.333 C 181.667 161.042 170.792 150.167 157.5 150.167 C 144.171 150.209 133.376 161.004 133.333 174.333 C 133.333 187.625 144.208 198.5 157.5 198.5 C 170.792 198.5 181.667 187.625 181.667 174.333 Z M 172 77.667 C 172 85.729 165.562 92.167 157.5 92.167 C 149.438 92.167 143 85.729 143 77.667 C 143 69.605 149.438 63.167 157.5 63.167 C 165.562 63.167 172 69.605 172 77.667 Z M 172 174.333 C 172 182.395 165.562 188.833 157.5 188.833 C 149.438 188.833 143 182.395 143 174.333 C 143 166.271 149.438 159.833 157.5 159.833 C 165.562 159.833 172 166.271 172 174.333 Z M 130.762 98.063 C 128.773 95.498 127.165 92.659 125.987 89.634 L 88.741 110.35 C 84.199 104.979 77.533 101.867 70.5 101.833 C 57.171 101.876 46.376 112.671 46.333 126 C 46.333 139.292 57.208 150.167 70.5 150.167 C 77.798 150.167 84.294 146.812 88.741 141.66 L 125.987 162.366 C 127.166 159.311 128.79 156.508 130.762 153.946 L 93.449 133.211 C 94.164 130.92 94.667 128.523 94.667 126 C 94.667 123.477 94.164 121.08 93.439 118.789 L 130.762 98.063 Z M 85 126 C 85 134.062 78.562 140.5 70.5 140.5 C 62.438 140.5 56 134.062 56 126 C 56 117.938 62.438 111.5 70.5 111.5 C 78.562 111.5 85 117.938 85 126 Z"/>
 </g>
 <g opacity=".4">
  <linearGradient id="_lgradient_237" x1=".517" x2=".517" y1="0" y2="1">
   <stop offset="0%" style="stop-color:rgb(255,255,255)"/>
   <stop offset="12.5%" stop-opacity=".098" style="stop-color:rgb(255,255,255)"/>
   <stop offset="92.5%" stop-opacity=".098" style="stop-color:rgb(0,0,0)"/>
   <stop offset="100%" stop-opacity=".498" style="stop-color:rgb(0,0,0)"/>
  </linearGradient>
  <path fill="none" stroke="url(#_lgradient_237)" stroke-linecap="round" stroke-linejoin="round" stroke-width="4.077" d="M 165.685 11.947 C 239.74 11.947 250.324 22.504 250.324 96.491 L 250.324 155.742 C 250.324 229.728 239.74 240.285 165.685 240.285 L 90.315 240.285 C 16.26 240.285 5.676 229.728 5.676 155.742 L 5.676 96.491 C 5.676 22.504 16.26 11.947 90.315 11.947 L 165.685 11.947 Z" vector-effect="non-scaling-stroke"/>
 </g>
</svg>
